OFDR/img/documents/plug.svg

<svg width="64" height="64" viewBox="0 0 64 64" fill="none" xmlns="http://www.w3.org/2000/svg">
<g id="plug">
<path id="Shape" fill-rule="evenodd" clip-rule="evenodd" d="M10.5533 48.4343C12.0088 48.4343 13.3772 48.9839 14.4065 49.982C16.5312 52.0424 16.5312 55.3945 14.4065 57.4549C13.3442 58.4849 11.9488 59 10.5533 59C9.15786 59 7.76251 58.4849 6.70014 57.4549C4.77926 55.592 4.59547 52.6733 6.14812 50.608C2.24064 45.3333 0.119769 39.1198 0.00491495 32.5697C-0.115727 25.6869 1.98663 19.1008 6.08471 13.5235C6.49693 12.9626 7.30001 12.8319 7.87852 13.2316C8.45703 13.6313 8.59182 14.41 8.17974 14.971C0.750372 25.0819 0.775838 38.9038 8.11762 48.9903C8.86475 48.6276 9.69355 48.4343 10.5533 48.4343ZM8.51903 55.691C9.64069 56.7786 11.4656 56.7786 12.5875 55.691C13.7093 54.6033 13.7093 52.8334 12.5874 51.7457C12.0441 51.2187 11.3216 50.9285 10.5532 50.9285C9.78486 50.9285 9.06243 51.2187 8.51903 51.7457C7.39724 52.8333 7.39724 54.6032 8.51903 55.691Z" fill="#86ADEF"/>
<path id="Shape_2" fill-rule="evenodd" clip-rule="evenodd" d="M49.0171 56.3694C49.5772 55.9655 50.3589 56.0914 50.763 56.6501C51.1675 57.2089 51.0416 57.9892 50.4817 58.393C46.6017 61.1914 42.2403 63.0453 37.5188 63.9031C37.1616 63.968 36.8029 64 36.4466 64C35.0674 64 33.7247 63.5213 32.6472 62.624C31.2973 61.4996 30.523 59.8481 30.523 58.0928V48.943H30.382C28.9339 48.943 27.7557 47.7671 27.7557 46.3215V44.2139C23.5193 42.5998 20.5018 38.5022 20.5018 33.7137V27.8036C18.4863 27.2541 17 25.4115 17 23.2279C17 20.824 18.8013 18.8334 21.1272 18.5267V10.7449C21.1272 8.67997 22.8103 7 24.8791 7C26.948 7 28.6311 8.67997 28.6311 10.7449V18.4844H34.8844V10.7449C34.8844 8.67997 36.5675 7 38.6364 7C40.7052 7 42.3883 8.67997 42.3883 10.7449V18.5267C44.7142 18.8334 46.5155 20.8241 46.5155 23.2279C46.5155 25.4115 45.0292 27.2541 43.0137 27.8036V33.7137C43.0137 38.5022 39.9962 42.5998 35.7599 44.2139V46.3214C35.7599 47.7669 34.5816 48.9428 33.1335 48.9428H33.0243V58.0927C33.0243 59.1054 33.4709 60.0584 34.2498 60.707C35.0344 61.3603 36.0626 61.6301 37.0709 61.4468C41.4225 60.6563 45.4417 58.948 49.0171 56.3694ZM38.6365 9.49661C37.9469 9.49661 37.3858 10.0566 37.3858 10.7449V18.4844H39.8872V10.7449C39.8872 10.0566 39.3261 9.49661 38.6365 9.49661ZM23.6286 10.7449C23.6286 10.0566 24.1897 9.49661 24.8793 9.49661C25.5689 9.49661 26.1299 10.0566 26.1299 10.7449V18.4844H23.6286V10.7449ZM21.7526 20.981C20.5113 20.981 19.5014 21.989 19.5014 23.2279C19.5014 24.4669 20.5113 25.4749 21.7526 25.4749H41.7631C43.0044 25.4749 44.0143 24.4669 44.0143 23.2279C44.0143 21.989 43.0044 20.981 41.7631 20.981H21.7526ZM23.0033 33.7137V27.9715H40.5125V33.7137C40.5125 38.5319 36.5852 42.4518 31.7579 42.4518C26.9306 42.4518 23.0033 38.5319 23.0033 33.7137ZM31.7911 46.4456C31.7958 46.4459 31.8005 46.4463 31.8053 46.4464H33.1336C33.2026 46.4464 33.2587 46.3903 33.2587 46.3215V44.8483C32.7675 44.914 32.2666 44.9484 31.7579 44.9484C31.2491 44.9484 30.7482 44.914 30.2571 44.8483V46.3215C30.2571 46.3903 30.3131 46.4464 30.3824 46.4464H31.7425C31.753 46.4461 31.7634 46.4447 31.7739 46.4447C31.7797 46.4447 31.7854 46.4452 31.7911 46.4456Z" fill="#86ADEF"/>
<path id="Path" d="M54.524 53.403C53.9302 52.8486 53.0049 52.87 52.437 53.444C52.4255 53.4557 52.414 53.4677 52.403 53.4792C51.8383 54.0843 51.8711 55.0323 52.476 55.5971C52.7649 55.8666 53.1318 56 53.4981 56C53.8851 56 54.2712 55.8509 54.563 55.556C54.5745 55.5443 54.586 55.5323 54.597 55.5208C55.1617 54.9158 55.1289 53.9677 54.524 53.403Z" fill="#86ADEF"/>
<path id="Path_2" d="M63.9153 29.9944C63.359 22.2381 60.0642 14.9341 54.6381 9.42814C49.3048 4.01616 42.1804 0.70347 34.5775 0.100506C27.0671 -0.495363 19.5925 1.57263 13.528 5.92299C12.9648 6.32691 12.8311 7.11764 13.2292 7.68893C13.6271 8.26022 14.4065 8.39617 14.9695 7.99212C26.5663 -0.326599 42.8608 1.06089 52.8723 11.2199C63.2183 21.7184 64.4694 38.0215 55.8467 49.985C55.4396 50.5498 55.5609 51.3424 56.1175 51.7556C56.3398 51.9206 56.5979 52 56.8537 52C57.2385 52 57.6181 51.8202 57.8627 51.4808C62.3164 45.3011 64.4661 37.6705 63.9153 29.9944Z" fill="#86ADEF"/>
<path id="Path_3" d="M11.5596 9.43109C10.9759 8.85283 10.0338 8.8567 9.45533 9.44046L9.43107 9.46515C8.85261 10.0486 8.85692 10.9906 9.44045 11.569C9.73057 11.8564 10.1092 12 10.4879 12C10.8707 12 11.2537 11.853 11.5447 11.5596L11.5689 11.535C12.1474 10.9515 12.1431 10.0095 11.5596 9.43109Z" fill="#86ADEF"/>
<path id="Path_4" d="M34.8292 32.6514C34.6044 32.2731 34.1916 32.0405 33.7451 32.0405H32.8485L34.5 29.9945C34.9301 29.4616 34.8383 28.6876 34.295 28.2658C33.7517 27.8439 32.9624 27.9341 32.5323 28.4668L29.2709 32.5073C28.9723 32.8774 28.9157 33.3823 29.1253 33.8071C29.3348 34.2319 29.7736 34.5018 30.2548 34.5018H31.5923L30.0558 37.1627C29.7142 37.7541 29.9263 38.505 30.5291 38.8399C30.7246 38.9484 30.9367 39 31.1464 39C31.5839 38.9999 32.0087 38.7753 32.2395 38.3756L34.837 33.8776C35.0571 33.4966 35.0541 33.0297 34.8292 32.6514Z" fill="#86ADEF"/>
</g>
</svg>

<svg width="64" height="64" fill="none" xmlns="http://www.w3.org/2000/svg"><g fill="#86ADEF"><path fill-rule="evenodd" clip-rule="evenodd" d="M10.553 48.434a5.5 5.5 0 013.853 1.548 5.177 5.177 0 010 7.473A5.52 5.52 0 0110.553 59 5.521 5.521 0 016.7 57.455a5.173 5.173 0 01-.552-6.847C2.241 45.333.12 39.12.005 32.57c-.12-6.883 1.982-13.47 6.08-19.047a1.312 1.312 0 011.794-.291c.578.4.713 1.178.3 1.739-7.429 10.11-7.402 23.933-.06 34.02a5.565 5.565 0 012.435-.557zM8.52 55.691a2.944 2.944 0 004.069 0 2.733 2.733 0 000-3.945 2.903 2.903 0 00-2.035-.818c-.768 0-1.49.29-2.034.818a2.733 2.733 0 000 3.945zm40.497.679a1.252 1.252 0 011.746.28c.404.559.279 1.34-.281 1.743a31.663 31.663 0 01-12.963 5.51 5.929 5.929 0 01-4.872-1.28 5.882 5.882 0 01-2.124-4.53v-9.15h-.141a2.627 2.627 0 01-2.626-2.621v-2.108c-4.237-1.614-7.254-5.712-7.254-10.5v-5.91A4.753 4.753 0 0117 23.228a4.752 4.752 0 014.127-4.701v-7.782a3.753 3.753 0 017.504 0v7.74h6.253v-7.74a3.753 3.753 0 017.504 0v7.782c2.326.306 4.128 2.297 4.128 4.7a4.753 4.753 0 01-3.502 4.577v5.91c0 4.788-3.018 8.886-7.254 10.5v2.107a2.627 2.627 0 01-2.627 2.622h-.109v9.15c0 1.012.447 1.965 1.226 2.614a3.436 3.436 0 002.82.74 29.179 29.179 0 0011.947-5.078zM38.637 9.496c-.69 0-1.251.56-1.251 1.248v7.74h2.501v-7.74a1.25 1.25 0 00-1.25-1.248zm-15.008 1.248a1.25 1.25 0 012.5 0v7.74h-2.5v-7.74zM21.753 20.98a2.252 2.252 0 00-2.252 2.247 2.252 2.252 0 002.252 2.247h20.01a2.252 2.252 0 002.251-2.247 2.252 2.252 0 00-2.25-2.247H21.752zm1.25 12.733v-5.742h17.51v5.742c0 4.818-3.928 8.738-8.755 8.738-4.827 0-8.755-3.92-8.755-8.738zm8.788 12.732h1.343a.125.125 0 00.125-.124v-1.474a11.315 11.315 0 01-3.002 0v1.474c0 .068.056.124.125.124h1.36l.032-.001h.017z"/><path d="M54.524 53.403a1.498 1.498 0 00-2.121.076 1.499 1.499 0 102.194 2.042 1.498 1.498 0 00-.073-2.118zm9.391-23.409c-.556-7.756-3.85-15.06-9.277-20.566A31.677 31.677 0 0034.578.101c-7.51-.596-14.986 1.472-21.05 5.822a1.279 1.279 0 00-.299 1.766 1.237 1.237 0 001.74.303C26.566-.327 42.861 1.061 52.873 11.22a30.051 30.051 0 012.975 38.765 1.28 1.28 0 00.27 1.77 1.241 1.241 0 001.745-.275c4.454-6.179 6.604-13.81 6.053-21.486zM11.56 9.431a1.488 1.488 0 00-2.105.01l-.024.024a1.488 1.488 0 102.114 2.095l.024-.025a1.488 1.488 0 00-.01-2.104z"/><path d="M34.83 32.651a1.26 1.26 0 00-1.085-.61h-.896l1.651-2.046a1.215 1.215 0 00-.205-1.73 1.272 1.272 0 00-1.763.202l-3.261 4.04c-.299.37-.355.875-.146 1.3.21.425.649.695 1.13.695h1.337l-1.536 2.66a1.218 1.218 0 00.473 1.678 1.268 1.268 0 001.71-.464l2.598-4.498a1.21 1.21 0 00-.008-1.227z"/></g></svg>
